X:153
T:Leith Wynd. Ru2.153
%%VWML:RutherfordVol2-2249-p77-0
F:http://www.vwml.org/record/RutherfordVol2/2249/p77
Z:vmp.Steve Mansfield 2015 www.village-music-project.org.uk
M:C|
L:1/8
W:The first & 2d Cou. foot it & right Hands & Left
W:half round .| The same Back again :| Cross
W:over two Cu. Lead up to the Top foot it & cast
W:off .|. Hands round four with the 3d Cu. right
W:Hand Left at Top :|
Q:1/2=60
K:Em
|:g | (dB)(AG) T(ED)(EG) | d2dB d3e | (dB)(AG) T(ED)(EG) | e2ed e3 :|
|: g | dega b2Ta>g | d2dB d3e | dega b2Ta>g | e2ed e3g |
dega b2Ta>g | deTd>B d2(e/f/g) | TdBAG EDEd | e2ed e3 :|
T:Highland Queen. Ru2.154, The
B:RUTHERFORD Complete Collection of 200 Country Dances Vol.2; 1759.
Z:vmp.Steve Mansfield 2015 www.village-music-project.org.uk
M:C|
L:1/4
W:The first Cu. foot it to the 2d Wo. & turns her .|
W:The same with the 2d Man :| Lead down one
W:Cu. & Hands round with the 3d Cu. .|. The first
W:Man turns his Partner Lead up to the Top &
W:Cast off :|
Q:1/2=80
K:G
|:BA B/c/d | g2 de | =fcAf | =F/G/A/B/ cA |
BG B/c/d | g2 b2 | ba/g/ ag/f/ | gd BG :|
|: gd Bg | G/A/B/c/ dB | =fc Af | =F/G/A/B/ cA |
g/f/e/d/ e/d/c/B/ | c/B/A/G/ F/G/A/F/ | \
G/A/B/c/ d/c/B/A/ | GD B, {A,}G, :|
